automatic/svg/images.svg

<?xml version="1.0" encoding="UTF-8" standalone="no"?>
<svg
   xmlns:dc="http://purl.org/dc/elements/1.1/"
   xmlns:cc="http://creativecommons.org/ns#"
   xmlns:rdf="http://www.w3.org/1999/02/22-rdf-syntax-ns#"
   xmlns:svg="http://www.w3.org/2000/svg"
   xmlns="http://www.w3.org/2000/svg"
   viewBox="0 0 320 320"
   height="320"
   width="320"
   xml:space="preserve"
   version="1.1"
   id="svg2"><metadata
     id="metadata8"><rdf:RDF><cc:Work
         rdf:about=""><dc:format>image/svg+xml</dc:format><dc:type
           rdf:resource="http://purl.org/dc/dcmitype/StillImage" /></cc:Work></rdf:RDF></metadata><defs
     id="defs6"><clipPath
       id="clipPath16"
       clipPathUnits="userSpaceOnUse"><path
         id="path18"
         d="M 0,256 256,256 256,0 0,0 0,256 Z" /></clipPath></defs><g
     transform="matrix(1.25,0,0,-1.25,0,320)"
     id="g10"><g
       id="g12"><g
         clip-path="url(#clipPath16)"
         id="g14"><g
           transform="translate(89.1431,155.4287)"
           id="g20"><path
             id="path22"
             style="fill:#f2f2f2;fill-opacity:1;fill-rule:nonzero;stroke:none"
             d="m 0,0 c 3.787,0 6.857,-3.07 6.857,-6.857 0,-3.788 -3.07,-6.857 -6.857,-6.857 -3.787,0 -6.857,3.069 -6.857,6.857 C -6.857,-3.07 -3.787,0 0,0 m 0,-17.714 c 5.986,0 10.857,4.87 10.857,10.857 C 10.857,-0.871 5.986,4 0,4 -5.987,4 -10.857,-0.871 -10.857,-6.857 c 0,-5.987 4.87,-10.857 10.857,-10.857" /></g><path
           id="path24"
           style="fill:#f2f2f2;fill-opacity:1;fill-rule:nonzero;stroke:none"
           d="m 244,12 -232,0 0,232 232,0 0,-232 z m 0,236 -232,0 -4,0 0,-4 0,-232 0,-4 4,0 232,0 4,0 0,4 0,232 0,4 -4,0 z" /><g
           transform="translate(60,96)"
           id="g26"><path
             id="path28"
             style="fill:#f2f2f2;fill-opacity:1;fill-rule:nonzero;stroke:none"
             d="m 0,0 4,-4 0,-12 0,-4 0.571,0 3.429,0 0.571,0 11.429,0 4,-4 -24,0 0,24 z m 8,80 13.657,0 92.686,0 L 128,80 128,66.343 128,21.037 94.603,46.604 92.172,48.466 89.74,46.604 56.343,21.037 40.86,32.891 38.429,34.752 35.997,32.891 8,11.457 8,66.343 8,80 Z M 0,64 0,88 24,88 20,84 8,84 4,84 4,80 4,68 0,64 Z m 112,24 24,0 0,-24 -4,4 0,12 0,4 -4,0 -12,0 -4,4 z m 16,-104 -13.657,0 -92.686,0 -13.086,0 0,22.857 L 38.429,29.714 56.343,16 92.172,43.429 128,16 128,-2.343 128,-16 Z m 8,16 0,-24 -24,0 4,4 12,0 4,0 0,4 0,12 4,4 z m -112,-28 9.657,0 -6.828,6.828 -1.172,1.172 84.686,0 -1.171,-1.172 -6.829,-6.828 9.657,0 24,0 4,0 0,4 0,24 0,9.657 L 133.172,2.828 132,1.657 132,16 l 0,1.976 0,44.367 1.172,-1.172 6.828,-6.828 0,9.657 0,24 0,4 -4,0 -24,0 -9.657,0 6.829,-6.829 L 110.343,84 25.657,84 26.829,85.171 33.657,92 24,92 0,92 -4,92 -4,88 -4,64 -4,54.343 2.829,61.171 4,62.343 4,1.657 2.829,2.828 -4,9.657 -4,0 l 0,-24 0,-4 4,0 24,0 z" /></g></g></g></g></svg>

<?xml version="1.0" encoding="UTF-8" standalone="no"?>
<svg
   xmlns:dc="http://purl.org/dc/elements/1.1/"
   xmlns:cc="http://creativecommons.org/ns#"
   xmlns:rdf="http://www.w3.org/1999/02/22-rdf-syntax-ns#"
   xmlns:svg="http://www.w3.org/2000/svg"
   xmlns="http://www.w3.org/2000/svg"
   viewBox="0 0 320 320"
   height="320"
   width="320"
   xml:space="preserve"
   id="svg2"
   version="1.1"><metadata
     id="metadata8"><rdf:RDF><cc:Work
         rdf:about=""><dc:format>image/svg+xml</dc:format><dc:type
           rdf:resource="http://purl.org/dc/dcmitype/StillImage" /></cc:Work></rdf:RDF></metadata><defs
     id="defs6"><clipPath
       id="clipPath18"
       clipPathUnits="userSpaceOnUse"><path
         id="path16"
         d="M 0,256 H 256 V 0 H 0 Z" /></clipPath></defs><g
     transform="matrix(1.3333333,0,0,-1.3333333,-10.666666,330.66666)"
     id="g10"><g
       id="g12"><g
         clip-path="url(#clipPath18)"
         id="g14"><g
           transform="translate(89.1431,155.4287)"
           id="g20"><path
             id="path22"
             style="fill:#f2f2f2;fill-opacity:1;fill-rule:nonzero;stroke:none"
             d="m 0,0 c 3.787,0 6.857,-3.07 6.857,-6.857 0,-3.788 -3.07,-6.857 -6.857,-6.857 -3.787,0 -6.857,3.069 -6.857,6.857 C -6.857,-3.07 -3.787,0 0,0 m 0,-17.714 c 5.986,0 10.857,4.87 10.857,10.857 C 10.857,-0.871 5.986,4 0,4 -5.987,4 -10.857,-0.871 -10.857,-6.857 c 0,-5.987 4.87,-10.857 10.857,-10.857" /></g><path
           id="path24"
           style="fill:#f2f2f2;fill-opacity:1;fill-rule:nonzero;stroke:none"
           d="M 244,12 H 12 v 232 h 232 z m 0,236 H 12 8 V 244 12 8 h 4 232 4 v 4 232 4 z" /><g
           transform="translate(60,96)"
           id="g26"><path
             id="path28"
             style="fill:#f2f2f2;fill-opacity:1;fill-rule:nonzero;stroke:none"
             d="m 0,0 4,-4 v -12 -4 H 4.571 8 8.571 20 l 4,-4 H 0 Z M 8,80 H 21.657 114.343 128 V 66.343 21.037 L 94.603,46.604 92.172,48.466 89.74,46.604 56.343,21.037 40.86,32.891 38.429,34.752 35.997,32.891 8,11.457 V 66.343 Z M 0,64 V 88 H 24 L 20,84 H 8 4 V 80 68 Z m 112,24 h 24 V 64 l -4,4 v 12 4 h -4 -12 z M 128,-16 H 114.343 21.657 8.571 V 6.857 L 38.429,29.714 56.343,16 92.172,43.429 128,16 V -2.343 Z m 8,16 v -24 h -24 l 4,4 h 12 4 v 4 12 z M 24,-28 h 9.657 l -6.828,6.828 -1.172,1.172 h 84.686 l -1.171,-1.172 -6.829,-6.828 h 9.657 24 4 v 4 24 9.657 L 133.172,2.828 132,1.657 V 16 17.976 62.343 L 133.172,61.171 140,54.343 V 64 88 92 h -4 -24 -9.657 L 109.172,85.171 110.343,84 H 25.657 L 26.829,85.171 33.657,92 H 24 0 -4 V 88 64 54.343 L 2.829,61.171 4,62.343 V 1.657 L 2.829,2.828 -4,9.657 V 0 -24 -28 h 4 z" /></g></g></g></g></svg>
